logos/teamwork.svg

<?xml version="1.0" encoding="UTF-8"?>
<svg width="512px" height="69px" viewBox="0 0 512 69" version="1.1" xmlns="http://www.w3.org/2000/svg" xmlns:xlink="http://www.w3.org/1999/xlink" preserveAspectRatio="xMidYMid">
    <g>
				<path d="M141.155602,12.2344488 L141.735872,12.2543886 C145.16403,12.4920218 147.412535,14.8373693 147.651789,18.4153362 L147.672984,19.0593594 L147.672984,62.1059452 C147.672984,66.3187157 145.175704,68.9345609 141.151896,68.9345609 C138.074927,68.9345609 134.795398,67.300584 134.503616,62.7758427 L134.482603,62.1096504 L134.482603,61.0722047 C130.56995,66.1593937 124.345276,68.9345609 116.71264,68.9345609 C101.132429,68.9345609 90.6690481,57.5411842 90.6690481,40.5826523 C90.6690481,23.6278256 101.317687,12.2344488 117.17208,12.2344488 C123.827333,12.2344488 129.524869,14.4657987 133.524345,18.5756549 L134.175074,19.277964 L134.175074,19.0593594 C134.175074,15.1059503 137.109563,12.2344488 141.155602,12.2344488 Z M219.612432,12.2344476 C233.523709,12.2307437 240.726294,20.5669668 241.032875,37.0104765 L241.043096,38.1187188 L241.043096,61.9503283 C241.043096,66.3854087 238.501354,68.9308558 234.062568,68.9308558 C229.870441,68.9308558 227.472923,66.6825527 227.254094,62.5796276 L227.237658,61.9503283 L227.237658,38.1187188 C227.237658,28.1444195 224.177193,23.8834818 217.000292,23.8834818 C209.639985,23.8834818 205.932372,28.2355542 205.693376,37.1773259 L205.681018,38.1187188 L205.681018,61.9540335 C205.681018,66.3891138 203.139276,68.9345609 198.704196,68.9345609 C194.512069,68.9345609 192.114551,66.6862578 191.895722,62.5833327 L191.879285,61.9540335 L191.879285,37.8186006 C191.879285,27.9258149 188.91145,23.887187 181.638214,23.887187 C174.486994,23.887187 170.741457,27.8696955 170.491648,35.7279946 L170.478263,36.5847812 L170.478263,62.1059452 C170.478263,66.3817035 167.869828,68.9345609 163.497736,68.9345609 C159.316088,68.9345609 156.916745,66.7476439 156.687265,62.751839 L156.66912,62.1059452 L156.66912,19.3668879 C156.66912,14.4390209 160.177909,12.2344476 163.649647,12.2344476 C167.540069,12.2344476 170.378224,14.8799353 170.474558,18.5591624 C173.649883,14.6131636 179.018664,12.2344476 185.021028,12.2344476 C193.083464,12.2344476 199.048776,15.6135576 202.368602,22.0346054 C205.392016,15.7839951 211.594459,12.2344476 219.612432,12.2344476 Z M324.3611,12.2344488 C327.729093,12.2344488 330.26713,14.9688592 330.26713,18.5999192 C330.26713,19.6836794 330.050996,20.7725857 329.588708,21.9802802 L329.281557,22.7200606 L313.768039,62.8099262 C312.141472,66.8781954 309.499691,68.9308558 305.913093,68.9308558 C302.377059,68.9308558 299.868318,67.0994539 298.451737,63.4798963 L287.917115,33.9652309 L277.338874,62.7988107 C276.305134,65.6554915 274.50813,68.9345609 269.784046,68.9345609 C265.707338,68.9345609 263.801958,66.7533176 262.338701,63.4208626 L262.084717,62.8210417 L246.404467,22.842331 C245.726422,21.1453663 245.430009,19.8744953 245.430009,18.5999192 C245.430009,14.6168687 248.434896,12.2344488 251.336039,12.2344488 C254.18091,12.2344488 256.58941,14.1557785 257.883784,17.4092167 L258.127603,18.0774911 L269.780341,51.0015711 L281.292283,18.2219925 C282.58168,14.3426867 284.022989,12.2344488 287.924525,12.2344488 C291.362917,12.2344488 292.963342,14.354674 294.180729,17.6004602 L294.404856,18.2219925 L305.916798,51.0015711 L317.573241,18.0663757 C318.788535,14.4204951 321.326571,12.2344488 324.3611,12.2344488 Z M359.467521,12.3863605 C380.505438,12.3863605 387.971342,27.5775295 387.971342,40.5826523 C387.971342,53.6618783 380.505438,68.9345609 359.471226,68.9345609 C350.519552,68.9345609 343.101815,65.9667252 338.018332,60.3496978 C333.468391,55.3292017 330.963701,48.3079175 330.963701,40.5826523 C330.963701,32.8685026 333.472096,25.8768596 338.018332,20.88971 C342.867211,15.5810532 349.842962,12.6592182 358.255961,12.4045651 L359.467521,12.3863605 L359.467521,12.3863605 Z M441.766606,0 C445.349948,0.00194324466 448.287766,2.76218795 448.572589,6.27217475 L448.595221,6.8323209 L448.595221,35.0656643 L466.639366,16.4212832 L467.524069,15.4737328 C469.164599,13.7571613 470.934505,12.2344488 473.282724,12.2344488 C476.82486,12.2344488 479.496282,14.9058715 479.496282,18.4443023 C479.496282,20.9683735 477.826196,22.8357757 475.937302,24.7400913 L475.46136,25.2173406 L460.551783,40.7271537 L476.83227,57.0187561 L477.722472,57.9407377 C479.023736,59.3552443 480.107634,60.9280401 480.107634,62.8803243 C480.107634,66.1630989 477.332467,68.9345609 474.049692,68.9345609 C471.488,68.9345609 469.69663,67.2707892 468.011143,65.5285766 L466.650482,64.1252591 L448.591516,45.343787 L448.591516,62.10224 C448.587432,65.8698411 445.534207,68.9230665 441.766606,68.9271506 C438.186862,68.9271506 435.245806,66.1650811 434.960649,62.6645092 L434.93799,62.1059452 L434.93799,6.82491057 C434.944115,3.05671027 437.998403,0.00407979752 441.766606,0 Z M6.82491057,0.00740212588 C10.0572244,0.00740212588 13.3265058,2.2758772 13.6305364,6.62397316 L13.6535263,7.29176113 L13.6535263,13.9240032 L22.6089057,13.9240032 C26.2325553,13.9240032 28.6668475,16.2953077 28.6668475,19.8300333 C28.6668475,23.3858199 26.6350222,25.5017042 23.0628322,25.714579 L22.4532889,25.7323583 L13.6535263,25.7360634 L13.6535263,51.1905345 C13.6535263,56.0405931 15.6728402,56.6630605 17.4327928,56.6630605 C18.7094861,56.6630605 19.6404651,56.3200682 20.3470602,56.0074021 L20.6822209,55.8553349 C21.209481,55.5787471 21.7949279,55.4314329 22.3903011,55.425536 C25.2173406,55.425536 27.1810771,58.7046054 27.1810771,61.646505 C27.1810771,63.2323148 26.56602,65.2701545 24.8357088,66.233497 L23.8862165,66.7642059 C21.7228777,67.9039327 18.8200058,68.9308558 14.2055956,68.9308558 C4.67210179,68.9308558 0.26254094,64.3130333 0.0114019741,53.9899181 L0,53.0357057 L0,7.29176113 C0,2.50839547 3.43468627,0.00370516318 6.82491057,0.00740212588 Z M421.31781,12.2339383 C426.027073,12.2339383 429.069011,14.7317288 429.069011,18.5999192 C429.069011,22.2235687 426.882965,24.6578609 423.626127,24.6578609 C422.992544,24.6578609 422.502768,24.5807472 422.033312,24.4812289 L421.566056,24.3762685 C420.85837,24.2095362 420.124748,24.0428039 418.861287,24.0428039 C411.161849,24.0428039 407.748644,29.0061776 407.554527,40.5861512 L407.545719,41.6571496 L407.545719,62.1059452 C407.545719,66.5891926 404.111032,68.9345609 400.720808,68.9345609 C397.496575,68.9345609 394.235559,66.817866 393.917518,62.7623723 L393.892192,62.1059452 L393.892192,19.0593594 C393.892192,15.235631 396.893374,12.2339383 400.720808,12.2339383 C404.275315,12.2398637 407.232581,14.9684081 407.523488,18.5109952 C410.980949,14.5001916 416.022549,12.2062161 421.31781,12.2339383 Z M60.8498949,11.8935738 C71.5504061,11.8935738 80.5761836,18.4331868 84.4073224,28.9558502 C85.3870012,31.6508512 84.8272306,35.1020729 80.4754612,36.9764025 L79.8277407,37.2331848 L48.4413034,48.6562029 C50.9867505,53.9768172 55.9442588,57.129911 61.8428786,57.129911 C64.2603313,57.1010618 66.6541123,56.6496416 68.9160351,55.7960523 C71.6127913,54.8475996 74.1268574,53.4507946 76.3533869,51.6672 L77.4823724,50.7088633 C78.5717932,49.8064322 79.9361105,49.3020007 81.3505627,49.2786703 C83.9330615,49.2786703 86.2673143,51.1423673 86.7860371,53.6174163 C87.0989176,55.0928947 86.7384647,56.6005759 85.7697347,57.9192684 L85.3484338,58.4378336 L85.3113822,58.4674749 C81.5172951,61.7761857 76.7339294,64.5365322 71.4837132,66.4446913 C69.5221184,67.1565345 67.5110071,67.7237076 65.4665282,68.141656 C63.2210582,68.6164868 60.9330136,68.861058 58.6379125,68.8715732 C47.0444569,68.8715732 37.9408709,62.1281762 33.6614075,50.3679882 C31.0196261,43.1058684 30.9566384,35.5769768 33.49097,29.1744549 C36.2920733,22.1124138 42.0202556,16.8288512 50.06787,13.9017722 C53.7322764,12.5679135 57.3596312,11.8935738 60.8498949,11.8935738 Z M359.467521,23.4277468 C350.538078,23.4277468 344.769139,30.1600283 344.769139,40.5826523 C344.769139,51.3535616 350.400987,58.0450863 359.467521,58.0450863 C368.396964,58.0450863 374.165904,51.1905345 374.165904,40.5826523 C374.165904,30.1600283 368.396964,23.4277468 359.467521,23.4277468 Z M119.476692,24.5059493 C110.688045,24.5059493 104.782015,31.0270365 104.782015,40.734564 C104.782015,50.2642437 110.625057,56.6630605 119.32478,56.6630605 C129.476927,56.6630605 134.023162,48.5858048 134.023162,40.5826523 C134.023162,29.4745731 126.716581,24.5059493 119.476692,24.5059493 Z M59.1344043,22.9349601 C57.8064738,22.9349601 56.4406025,23.1388923 55.0633489,23.5429625 L54.0286895,23.8834818 C46.0367802,26.7919072 44.2690517,33.5343173 45.203812,38.9448971 L45.3141457,39.5192705 L70.753796,30.2600677 C68.7863544,26.6030716 64.8144195,22.9349601 59.1344043,22.9349601 Z" fill="#1D1C39"></path>
				<path d="M500.008066,45.0103223 C493.397793,45.0184882 488.041144,50.3751369 488.032978,56.9854097 C488.041144,63.5956824 493.397793,68.9523312 500.008066,68.9604971 C506.619785,68.9543726 511.978688,63.5971271 511.986858,56.9854097 C511.978688,50.3736922 506.619785,45.0164468 500.008066,45.0103223" fill="#FF22B1"></path>
		</g>
</svg>

<svg preserveAspectRatio="xMidYMid" viewBox="0 0 512 69" xmlns="http://www.w3.org/2000/svg">
  <path fill="#1D1C39" d="m141.156 12.234.58.02c3.428.238 5.677 2.583 5.916 6.161l.021.644v43.047c0 4.213-2.497 6.829-6.521 6.829-3.077 0-6.357-1.634-6.648-6.16l-.021-.665v-1.038c-3.913 5.087-10.138 7.863-17.77 7.863-15.58 0-26.044-11.394-26.044-28.352 0-16.955 10.649-28.349 26.503-28.349 6.655 0 12.353 2.232 16.352 6.342l.651.702v-.219c0-3.953 2.935-6.825 6.98-6.825Zm78.456 0c13.912-.003 21.114 8.333 21.42 24.776l.011 1.109V61.95c0 4.435-2.542 6.98-6.98 6.98-4.193 0-6.59-2.247-6.809-6.35l-.016-.63V38.12c0-9.975-3.06-14.236-10.238-14.236-7.36 0-11.068 4.353-11.307 13.294l-.012.942v23.835c0 4.435-2.542 6.98-6.977 6.98-4.192 0-6.59-2.248-6.808-6.35l-.017-.63V37.819c0-9.893-2.968-13.932-10.24-13.932-7.152 0-10.898 3.983-11.147 11.841l-.014.857v25.52c0 4.277-2.608 6.83-6.98 6.83-4.182 0-6.581-2.187-6.81-6.183l-.019-.646v-42.74c0-4.927 3.509-7.132 6.98-7.132 3.891 0 6.73 2.646 6.826 6.325 3.175-3.946 8.544-6.325 14.546-6.325 8.062 0 14.028 3.38 17.348 9.8 3.023-6.25 9.225-9.8 17.243-9.8Zm104.75 0c3.367 0 5.905 2.735 5.905 6.366 0 1.084-.216 2.173-.678 3.38l-.307.74-15.514 40.09c-1.627 4.068-4.268 6.12-7.855 6.12-3.536 0-6.045-1.83-7.461-5.45l-10.535-29.515L277.34 62.8c-1.034 2.856-2.83 6.136-7.555 6.136-4.077 0-5.982-2.182-7.445-5.514l-.254-.6-15.68-39.979c-.679-1.697-.975-2.968-.975-4.242 0-3.983 3.005-6.366 5.906-6.366 2.845 0 5.253 1.922 6.548 5.175l.244.668 11.652 32.925 11.512-32.78c1.29-3.88 2.731-5.988 6.633-5.988 3.438 0 5.038 2.12 6.256 5.366l.224.622 11.512 32.78 11.656-32.936c1.216-3.646 3.754-5.832 6.788-5.832Zm35.106.152c21.037 0 28.503 15.192 28.503 28.197 0 13.079-7.466 28.352-28.5 28.352-8.951 0-16.37-2.968-21.453-8.585-4.55-5.02-7.054-12.042-7.054-19.767 0-7.714 2.508-14.706 7.054-19.693 4.85-5.309 11.825-8.23 20.238-8.485l1.212-.019ZM441.767 0a6.833 6.833 0 0 1 6.806 6.272l.022.56v28.234L466.64 16.42l.885-.947c1.64-1.717 3.41-3.24 5.759-3.24 3.542 0 6.213 2.672 6.213 6.21 0 2.524-1.67 4.392-3.559 6.296l-.476.477-14.91 15.51 16.281 16.292.89.922c1.302 1.414 2.386 2.987 2.386 4.94 0 3.282-2.776 6.054-6.058 6.054-2.562 0-4.353-1.664-6.039-3.406l-1.36-1.404-18.06-18.781v16.758a6.832 6.832 0 0 1-6.824 6.825 6.833 6.833 0 0 1-6.806-6.262l-.023-.56V6.826A6.836 6.836 0 0 1 441.767 0ZM6.825.007c3.232 0 6.502 2.269 6.806 6.617l.023.668v6.632h8.955c3.624 0 6.058 2.371 6.058 5.906 0 3.556-2.032 5.672-5.604 5.885l-.61.017-8.8.004v25.455c0 4.85 2.02 5.472 3.78 5.472 1.276 0 2.207-.343 2.914-.656l.335-.152a3.757 3.757 0 0 1 1.708-.43c2.827 0 4.791 3.28 4.791 6.222 0 1.585-.615 3.623-2.345 4.586l-.95.531c-2.163 1.14-5.066 2.167-9.68 2.167C4.672 68.93.263 64.313.01 53.99L0 53.036V7.292C0 2.508 3.435.004 6.825.007Zm414.493 12.227c4.71 0 7.751 2.498 7.751 6.366 0 3.624-2.186 6.058-5.443 6.058a7.302 7.302 0 0 1-1.593-.177l-.467-.105c-.708-.166-1.441-.333-2.705-.333-7.7 0-11.112 4.963-11.306 16.543l-.01 1.071v20.449c0 4.483-3.434 6.829-6.824 6.829-3.224 0-6.485-2.117-6.803-6.173l-.026-.656V19.059c0-3.823 3.001-6.825 6.829-6.825a6.837 6.837 0 0 1 6.802 6.277 18.087 18.087 0 0 1 13.795-6.277Zm-360.468-.34c10.7 0 19.726 6.54 23.557 17.062.98 2.695.42 6.146-3.932 8.02l-.647.257L48.44 48.656c2.546 5.32 7.503 8.474 13.402 8.474a20.734 20.734 0 0 0 7.073-1.334 25.347 25.347 0 0 0 7.437-4.129l1.13-.958a6.225 6.225 0 0 1 3.868-1.43c2.582 0 4.916 1.863 5.435 4.338.313 1.476-.048 2.984-1.016 4.302l-.422.519-.037.03c-3.794 3.308-8.577 6.069-13.827 7.977a42.724 42.724 0 0 1-6.017 1.697c-2.246.474-4.534.72-6.83.73-11.593 0-20.696-6.744-24.976-18.504-2.641-7.262-2.704-14.791-.17-21.194 2.801-7.062 8.53-12.345 16.577-15.272 3.664-1.334 7.292-2.008 10.782-2.008Zm298.618 11.534c-8.93 0-14.699 6.732-14.699 17.155 0 10.77 5.632 17.462 14.699 17.462 8.929 0 14.698-6.854 14.698-17.462 0-10.423-5.769-17.155-14.698-17.155Zm-239.991 1.078c-8.789 0-14.695 6.521-14.695 16.229 0 9.53 5.843 15.928 14.543 15.928 10.152 0 14.698-8.077 14.698-16.08 0-11.108-7.306-16.077-14.546-16.077Zm-60.343-1.571c-1.328 0-2.693.204-4.07.608l-1.035.34c-7.992 2.909-9.76 9.651-8.825 15.062l.11.574 25.44-9.259c-1.968-3.657-5.94-7.325-11.62-7.325Z"/>
  <path fill="#FF22B1" d="M500.008 45.01c-6.61.008-11.967 5.365-11.975 11.975.008 6.61 5.365 11.967 11.975 11.975 6.612-.006 11.97-5.363 11.979-11.975-.008-6.611-5.367-11.969-11.979-11.975"/>
</svg>
